file/cnn-airport.svg

<svg clip-rule="evenodd" fill-rule="evenodd" viewBox="0 0 560 400" xmlns="http://www.w3.org/2000/svg"><g transform="matrix(.416813 0 0 .416813 99.9998 128.657)"><path d="m718.435 0c80.22 0 145.263 64.514 145.263 144.079 0 79.578-65.043 144.093-145.263 144.093s-145.249-64.514-145.249-144.093c0-79.565 65.029-144.079 145.249-144.079z" fill="#e82133" fill-rule="nonzero"/><path d="m184.684 202.898c5.28 0 8.885-4.291 8.885-9.139v-133.857c0-50.085 64.479-74.087 98.609-15.98 34.854 59.389 54.819 93.824 54.819 93.824v-77.818c.013-50.073 64.365-74.1 98.494-15.955 34.905 59.376 55.303 93.799 55.303 93.799v-126.762h76.778v221.982c.215 57.13-67.271 66.115-95.119 20.41-16.423-26.909-58.157-95.564-58.157-95.564v75.128c.152 57.13-67.284 66.104-95.169 20.385-16.386-26.909-58.158-95.55-58.158-95.55v67.931c.039 34.728-20.562 53.563-52.585 53.538h-74.455c-190.568-.115-192.37-268.311-2.577-268.298h42.33v76.029s-12.109-.063-46.658 0c-77.717.089-85.84 115.986 5.471 115.897z" fill="#e82133" fill-rule="nonzero"/><path d="m539.279 11.01v217.083c0 13.961-13.341 17.108-20.055 7.653 0 0-90.092-143.123-112.787-179.957-6.689-9.469-20.905-6.309-20.867 7.653v164.637c.025 13.937-12.972 17.085-19.636 7.615 0 0-90.104-143.084-112.825-179.93-6.676-9.469-20.968-6.308-20.905 7.653v163.596c0 7.54-6.283 13.721-13.886 13.721h-79.621c-135.52 0-131.432-191.341-3.338-191.519h49.006" fill="none" stroke="#fff" stroke-width="11.74"/><g fill-rule="nonzero"><path d="m718.435 12.863c73.059 0 132.296 58.754 132.296 131.217 0 72.475-59.237 131.229-132.296 131.229s-132.282-58.754-132.282-131.229c0-72.463 59.224-131.217 132.282-131.217z" stroke="#e82133" stroke-width="25.72"/><path d="m64.498 333.429h-17.643l-3.135 7.805h-11.233l16.907-38.077h12.578l16.881 38.077h-11.233zm-8.834-22.072-6.029 15.129h12.071z"/><path d="m124.255 303.157h10.433v38.077h-10.433z"/><path d="m182.882 303.157h27.937c10.649 0 12.438 6.422 12.438 10.331 0 4.646-1.904 7.641-6.271 9.19v.102c4.608.724 5.293 6.473 5.293 10.205 0 1.891.127 6.321 1.993 8.249h-11.398c-.977-1.751-1.028-3.3-1.028-7.285 0-5.355-2.31-6.676-5.534-6.676h-12.947v13.949h-10.471zm10.472 16.88h13.797c2.323 0 5-1.32 5-4.874 0-3.807-3.008-4.747-5.534-4.747h-13.264v9.621z"/><path d="m271.21 303.157h25.83c10.903 0 13.556 6.422 13.556 11.576 0 8.098-4.315 12.896-12.73 12.896h-16.196v13.605h-10.459v-38.077zm10.472 17.541h11.169c3.224 0 7.006-.102 7.006-5.217 0-4.976-3.071-5.356-6.029-5.356h-12.134v10.573z"/><path d="m380.266 302.065c20.663 0 23.899 12.197 23.899 20.156 0 7.92-3.249 20.104-23.899 20.104-20.651 0-23.863-12.185-23.863-20.104 0-7.959 3.199-20.156 23.863-20.156zm0 33.013c9.481 0 12.806-6.956 12.806-12.845 0-5.941-3.325-12.87-12.806-12.87-9.469 0-12.794 6.929-12.794 12.87-.001 5.877 3.325 12.845 12.794 12.845z"/><path d="m451.813 303.157h27.912c10.662 0 12.413 6.422 12.413 10.331 0 4.646-1.891 7.641-6.232 9.19v.102c4.595.724 5.28 6.473 5.28 10.205 0 1.891.178 6.321 2.006 8.249h-11.424c-.926-1.751-.99-3.3-.99-7.285 0-5.355-2.347-6.676-5.559-6.676h-12.972v13.949h-10.446v-38.065zm10.446 16.88h13.811c2.321 0 5-1.32 5-4.874 0-3.807-3.008-4.747-5.533-4.747h-13.278z"/><path d="m551.795 310.416h-14.293v-7.26h38.979v7.26h-14.268v30.817h-10.395v-30.817z"/><path d="m807.399 144.003c-.09-2.678-18.545-6.537-18.545-6.537-1.041-.228-2.755-.431-3.796-.457l-27.162-.901c-1.053-.038-2.398-.774-2.957-1.612l-50.263-74.633c-.558-.838-1.903-1.536-2.97-1.536h-11.97c-1.053 0-1.586.761-1.155 1.701l31.833 70.977c.407.939-.101 1.739-1.142 1.803l-50.11 2.602c-1.041.051-2.438-.546-3.098-1.346l-17.972-21.602c-.659-.812-2.03-1.523-3.071-1.625l-7.323-.698c-1.055-.102-1.663.609-1.346 1.587l9.989 30.525c.316.965.316 2.551 0 3.516l-9.964 30.501c-.305.964.292 1.648 1.345 1.561l7.312-.799c1.041-.128 2.437-.864 3.098-1.651l17.947-21.413c.673-.799 2.056-1.383 3.097-1.333l50.11 3.021c1.04.063 1.548.863 1.117 1.815l-31.884 70.369c-.433.913.101 1.7 1.154 1.7h12.021c1.054 0 2.411-.711 2.982-1.549l50.237-73.973c.584-.838 1.892-1.599 2.957-1.637l27.188-1.346c1.041-.051 2.755-.267 3.77-.482.039-.011 18.621-3.87 18.571-6.548z" fill="#fff"/></g><path d="m807.399 144.003c-.09-2.678-18.545-6.537-18.545-6.537-1.041-.228-2.755-.431-3.796-.457l-27.162-.901c-1.053-.038-2.398-.774-2.957-1.612l-50.263-74.633c-.558-.838-1.903-1.536-2.97-1.536h-11.97c-1.053 0-1.586.761-1.155 1.701l31.833 70.977c.407.939-.101 1.739-1.142 1.803l-50.11 2.602c-1.041.051-2.438-.546-3.098-1.346l-17.972-21.602c-.659-.812-2.03-1.523-3.071-1.625l-7.323-.698c-1.055-.102-1.663.609-1.346 1.587l9.989 30.525c.316.965.316 2.551 0 3.516l-9.964 30.501c-.305.964.292 1.648 1.345 1.561l7.312-.799c1.041-.128 2.437-.864 3.098-1.651l17.947-21.413c.673-.799 2.056-1.383 3.097-1.333l50.11 3.021c1.04.063 1.548.863 1.117 1.815l-31.884 70.369c-.433.913.101 1.7 1.154 1.7h12.021c1.054 0 2.411-.711 2.982-1.549l50.237-73.973c.584-.838 1.892-1.599 2.957-1.637l27.188-1.346c1.041-.051 2.755-.267 3.77-.482.039-.011 18.621-3.87 18.571-6.548z" fill="none" stroke="#fff" stroke-width="2.57"/></g></svg>

<?xml version="1.0" encoding="UTF-8" standalone="no"?>
<!DOCTYPE svg PUBLIC "-//W3C//DTD SVG 1.1//EN" "http://www.w3.org/Graphics/SVG/1.1/DTD/svg11.dtd">
<svg width="100%" height="100%" viewBox="0 0 560 400" version="1.1" xmlns="http://www.w3.org/2000/svg" xmlns:xlink="http://www.w3.org/1999/xlink" xml:space="preserve" xmlns:serif="http://www.serif.com/" style="fill-rule:evenodd;clip-rule:evenodd;">
    <g transform="matrix(0.416813,0,0,0.416813,99.9998,128.657)">
        <path d="M718.435,0C798.655,0 863.698,64.514 863.698,144.079C863.698,223.657 798.655,288.172 718.435,288.172C638.215,288.172 573.186,223.658 573.186,144.079C573.186,64.514 638.215,0 718.435,0Z" style="fill:rgb(232,33,51);fill-rule:nonzero;"/>
        <path d="M184.684,202.898C189.964,202.898 193.569,198.607 193.569,193.759L193.569,59.902C193.569,9.817 258.048,-14.185 292.178,43.922C327.032,103.311 346.997,137.746 346.997,137.746L346.997,59.928C347.01,9.855 411.362,-14.172 445.491,43.973C480.396,103.349 500.794,137.772 500.794,137.772L500.794,11.01L577.572,11.01L577.572,232.992C577.787,290.122 510.301,299.107 482.453,253.402C466.03,226.493 424.296,157.838 424.296,157.838L424.296,232.966C424.448,290.096 357.012,299.07 329.127,253.351C312.741,226.442 270.969,157.801 270.969,157.801L270.969,225.732C271.008,260.46 250.407,279.295 218.384,279.27L143.929,279.27C-46.639,279.155 -48.441,10.959 141.352,10.972L183.682,10.972L183.682,87.001C183.682,87.001 171.573,86.938 137.024,87.001C59.307,87.09 51.184,202.987 142.495,202.898L184.684,202.898Z" style="fill:rgb(232,33,51);fill-rule:nonzero;"/>
        <path d="M539.279,11.01L539.279,228.093C539.279,242.054 525.938,245.201 519.224,235.746C519.224,235.746 429.132,92.623 406.437,55.789C399.748,46.32 385.532,49.48 385.57,63.442L385.57,228.079C385.595,242.016 372.598,245.164 365.934,235.694C365.934,235.694 275.83,92.61 253.109,55.764C246.433,46.295 232.141,49.456 232.204,63.417L232.204,227.013C232.204,234.553 225.921,240.734 218.318,240.734L138.697,240.734C3.177,240.734 7.265,49.393 135.359,49.215L184.365,49.215" style="fill:none;fill-rule:nonzero;stroke:white;stroke-width:11.74px;"/>
        <path d="M718.435,12.863C791.494,12.863 850.731,71.617 850.731,144.08C850.731,216.555 791.494,275.309 718.435,275.309C645.376,275.309 586.153,216.555 586.153,144.08C586.153,71.617 645.377,12.863 718.435,12.863Z" style="fill-rule:nonzero;stroke:rgb(232,33,51);stroke-width:25.72px;"/>
        <g>
            <path d="M64.498,333.429L46.855,333.429L43.72,341.234L32.487,341.234L49.394,303.157L61.972,303.157L78.853,341.234L67.62,341.234L64.498,333.429ZM55.664,311.357L49.635,326.486L61.706,326.486L55.664,311.357Z" style="fill-rule:nonzero;"/>
            <rect x="124.255" y="303.157" width="10.433" height="38.077" style="fill-rule:nonzero;"/>
            <path d="M182.882,303.157L210.819,303.157C221.468,303.157 223.257,309.579 223.257,313.488C223.257,318.134 221.353,321.129 216.986,322.678L216.986,322.78C221.594,323.504 222.279,329.253 222.279,332.985C222.279,334.876 222.406,339.306 224.272,341.234L212.874,341.234C211.897,339.483 211.846,337.934 211.846,333.949C211.846,328.594 209.536,327.273 206.312,327.273L193.365,327.273L193.365,341.222L182.894,341.222L182.882,303.157ZM193.354,320.037L207.151,320.037C209.474,320.037 212.151,318.717 212.151,315.163C212.151,311.356 209.143,310.416 206.617,310.416L193.353,310.416L193.353,320.037L193.354,320.037Z" style="fill-rule:nonzero;"/>
            <path d="M271.21,303.157L297.04,303.157C307.943,303.157 310.596,309.579 310.596,314.733C310.596,322.831 306.281,327.629 297.866,327.629L281.67,327.629L281.67,341.234L271.211,341.234L271.211,303.157L271.21,303.157ZM281.682,320.698L292.851,320.698C296.075,320.698 299.857,320.596 299.857,315.481C299.857,310.505 296.786,310.125 293.828,310.125L281.694,310.125L281.694,320.698L281.682,320.698Z" style="fill-rule:nonzero;"/>
            <path d="M380.266,302.065C400.929,302.065 404.165,314.262 404.165,322.221C404.165,330.141 400.916,342.325 380.266,342.325C359.615,342.325 356.403,330.14 356.403,322.221C356.403,314.262 359.602,302.065 380.266,302.065ZM380.266,335.078C389.747,335.078 393.072,328.122 393.072,322.233C393.072,316.292 389.747,309.363 380.266,309.363C370.797,309.363 367.472,316.292 367.472,322.233C367.471,328.11 370.797,335.078 380.266,335.078Z" style="fill-rule:nonzero;"/>
            <path d="M451.813,303.157L479.725,303.157C490.387,303.157 492.138,309.579 492.138,313.488C492.138,318.134 490.247,321.129 485.906,322.678L485.906,322.78C490.501,323.504 491.186,329.253 491.186,332.985C491.186,334.876 491.364,339.306 493.192,341.234L481.768,341.234C480.842,339.483 480.778,337.934 480.778,333.949C480.778,328.594 478.431,327.273 475.219,327.273L462.247,327.273L462.247,341.222L451.801,341.222L451.801,303.157L451.813,303.157ZM462.259,320.037L476.07,320.037C478.391,320.037 481.07,318.717 481.07,315.163C481.07,311.356 478.062,310.416 475.537,310.416L462.259,310.416L462.259,320.037Z" style="fill-rule:nonzero;"/>
            <path d="M551.795,310.416L537.502,310.416L537.502,303.156L576.481,303.156L576.481,310.416L562.213,310.416L562.213,341.233L551.818,341.233L551.818,310.416L551.795,310.416Z" style="fill-rule:nonzero;"/>
        </g>
        <g>
            <path d="M807.399,144.003C807.309,141.325 788.854,137.466 788.854,137.466C787.813,137.238 786.099,137.035 785.058,137.009L757.896,136.108C756.843,136.07 755.498,135.334 754.939,134.496L704.676,59.863C704.118,59.025 702.773,58.327 701.706,58.327L689.736,58.327C688.683,58.327 688.15,59.088 688.581,60.028L720.414,131.005C720.821,131.944 720.313,132.744 719.272,132.808L669.162,135.41C668.121,135.461 666.724,134.864 666.064,134.064L648.092,112.462C647.433,111.65 646.062,110.939 645.021,110.837L637.698,110.139C636.643,110.037 636.035,110.748 636.352,111.726L646.341,142.251C646.657,143.216 646.657,144.802 646.341,145.767L636.377,176.268C636.072,177.232 636.669,177.916 637.722,177.829L645.034,177.03C646.075,176.902 647.471,176.166 648.132,175.379L666.079,153.966C666.752,153.167 668.135,152.583 669.176,152.633L719.286,155.654C720.326,155.717 720.834,156.517 720.403,157.469L688.519,227.838C688.086,228.751 688.62,229.538 689.673,229.538L701.694,229.538C702.748,229.538 704.105,228.827 704.676,227.989L754.913,154.016C755.497,153.178 756.805,152.417 757.87,152.379L785.058,151.033C786.099,150.982 787.813,150.766 788.828,150.551C788.867,150.54 807.449,146.681 807.399,144.003Z" style="fill:white;fill-rule:nonzero;"/>
            <path d="M807.399,144.003C807.309,141.325 788.854,137.466 788.854,137.466C787.813,137.238 786.099,137.035 785.058,137.009L757.896,136.108C756.843,136.07 755.498,135.334 754.939,134.496L704.676,59.863C704.118,59.025 702.773,58.327 701.706,58.327L689.736,58.327C688.683,58.327 688.15,59.088 688.581,60.028L720.414,131.005C720.821,131.944 720.313,132.744 719.272,132.808L669.162,135.41C668.121,135.461 666.724,134.864 666.064,134.064L648.092,112.462C647.433,111.65 646.062,110.939 645.021,110.837L637.698,110.139C636.643,110.037 636.035,110.748 636.352,111.726L646.341,142.251C646.657,143.216 646.657,144.802 646.341,145.767L636.377,176.268C636.072,177.232 636.669,177.916 637.722,177.829L645.034,177.03C646.075,176.902 647.471,176.166 648.132,175.379L666.079,153.966C666.752,153.167 668.135,152.583 669.176,152.633L719.286,155.654C720.326,155.717 720.834,156.517 720.403,157.469L688.519,227.838C688.086,228.751 688.62,229.538 689.673,229.538L701.694,229.538C702.748,229.538 704.105,228.827 704.676,227.989L754.913,154.016C755.497,153.178 756.805,152.417 757.87,152.379L785.058,151.033C786.099,150.982 787.813,150.766 788.828,150.551C788.867,150.54 807.449,146.681 807.399,144.003Z" style="fill:none;fill-rule:nonzero;stroke:white;stroke-width:2.57px;"/>
        </g>
    </g>
</svg>
